X:1
T:Title
%%score { ( 1 3 ) | 2 }
L:1/8
M:3/4
K:F
V:1 treble nm="Grand Piano"
V:3 treble 
V:2 bass 
V:1
 z2 z2[Q:1/4=100] [CAc]2 | [CAc]2 [CFA]2 [A,F]2 | [B,EG]2 [CEA]3 [B,EG] | F4 F2 | F2 B2 d2 | %5
 f3 e d2 | c4 c2 | [^Fd]2 [FA]2 [FA]2 | [DGB]2 [CGc]3 [CGB] | [CFA]4 [B,EG]2 | %10
 [A,F]2 [DFB]2 [Fd]2 | [A,F]2 [CFA]3 [B,EG] |[M:2/4] [A,F]4 |[M:1/4] A2 |[M:3/4] c6 | [FA]4 A2 | %16
 A6 | F4 A2 | [FA]2 [EG]2 [GB]2 | [GB]2 [FA]2 [Fc]2 | c6- | c4 z2 | d6 | [DFB]4 d2 | c6 | A4 G2 | %26
 F2 B2 A2 | [B,EG]2 [CEA]3 [B,EG] | F6- |[M:2/4] F4 |] %30
V:2
 z2 z2 F,2 | F,2 F,2 F,2 | C,2 C,3 C, | [F,A,]4 [F,A,]2 | [B,D]2 [B,DF]2 [B,DF]2 | %5
 [B,DF]3 [B,CF] [B,F]2 | [F,A,F]4 [F,A,F]2 | [D,A,]2 [D,D]2 [D,D]2 | G,2 E,3 C, | F,4 C,2 | %10
 D,2 B,,2 [B,,B,]2 | C,2 C,3 C, |[M:2/4] F,4 |[M:1/4][K:treble] F2 |[M:3/4] A4[K:bass] F,2 | %15
 F,4[K:treble] F2 | F4[K:bass] [F,C]2 | [F,A,C]4 [F,CF]2 | [C,C]2 [C,C]2 [C,C]2 | %19
 [F,C]2 [F,C]2 [F,A,]2 | [C,G,]2 [C,A,]2 [C,B,]2 | [F,A,]4[K:treble] F2 | F4[K:bass] B,,2 | %23
 B,,4[K:treble] B2 | A4[K:bass] [F,C]2 | [F,CF]4 [B,CE]2 | [A,C]2 [G,CE]2 [F,CF]2 | C,2 C,3 C, | %28
 F,4 B,,2 |[M:2/4] F,,4 |] %30
V:3
 x6 | x6 | x6 | x6 | x6 | x6 | x6 | x6 | x6 | x6 | x6 | x6 |[M:2/4] x4 |[M:1/4] x2 | %14
[M:3/4] z2 z2 [CA]2 | x6 | z2 z2 F2 | x6 | x6 | x6 | E2 F2 G2 | F4 A2 | z2 z2 [B,F]2 | x6 | %24
 z2 z2 A2 | x6 | x6 | x6 | A,4 [B,D]2 |[M:2/4] [A,C]4 |] %30

